tools/download-figma-icons/icons/solid/account.svg

<svg width="24" height="24" viewBox="0 0 24 24" fill="none" xmlns="http://www.w3.org/2000/svg">
<path fill-rule="evenodd" clip-rule="evenodd" d="M12.0009 12.75C14.8959 12.75 17.2509 10.395 17.2509 7.5C17.2509 4.605 14.8959 2.25 12.0009 2.25C9.10589 2.25 6.75089 4.605 6.75089 7.5C6.75089 10.395 9.10589 12.75 12.0009 12.75ZM20.2509 22.4999C20.6484 22.4999 20.9784 22.1849 21.0009 21.7874C21.0009 21.7837 21.001 21.7777 21.0011 21.7694C21.0057 21.5016 21.0509 18.8494 19.0434 16.7474C17.4609 15.0899 15.0909 14.2499 12.0009 14.2499C8.9034 14.2499 6.5409 15.0899 4.9584 16.7406C2.95547 18.8448 2.99664 21.5084 3.00069 21.7704C3.00081 21.7782 3.0009 21.7839 3.0009 21.7874C3.0234 22.1849 3.3534 22.4999 3.7509 22.4999H20.2509Z" fill="black"/>
</svg>

<svg xmlns="http://www.w3.org/2000/svg" width="24" height="24" fill="none" viewBox="0 0 24 24"><path fill="currentColor" fill-rule="evenodd" d="M12 12.75a5.256 5.256 0 0 0 5.25-5.25A5.256 5.256 0 0 0 12 2.25 5.256 5.256 0 0 0 6.75 7.5 5.256 5.256 0 0 0 12 12.75m8.25 9.75a.755.755 0 0 0 .75-.713l.001-.018c.005-.267.05-2.92-1.958-5.022-1.582-1.657-3.952-2.497-7.042-2.497-3.098 0-5.46.84-7.043 2.49-2.003 2.105-1.961 4.768-1.957 5.03v.017a.755.755 0 0 0 .75.713z" clip-rule="evenodd"/></svg>
